images_elementary_svg/cmd/sc_exportdirecttoepub.svg

<svg height="16" width="16" xmlns="http://www.w3.org/2000/svg" xmlns:xlink="http://www.w3.org/1999/xlink"><linearGradient id="a" gradientTransform="matrix(.24324326 0 0 .29729733 2.162163 1.864868)" gradientUnits="userSpaceOnUse" x1="23.99999" x2="23.99999" y1="3.756264" y2="43.828987"><stop offset="0" stop-color="#fff"/><stop offset=".08691634" stop-color="#fff" stop-opacity=".235294"/><stop offset=".91860473" stop-color="#fff" stop-opacity=".156863"/><stop offset="1" stop-color="#fff" stop-opacity=".392157"/></linearGradient><radialGradient id="b" cx="7.495683" cy="8.449767" gradientTransform="matrix(0 .77899668 -.98890282 -.00000001 18.656045 -3.144933)" gradientUnits="userSpaceOnUse" r="19.99999"><stop offset="0" stop-color="#5f5f5f"/><stop offset=".26238" stop-color="#4f4f4f"/><stop offset=".704952" stop-color="#3b3b3b"/><stop offset="1" stop-color="#2b2b2b"/></radialGradient><linearGradient id="c" gradientTransform="matrix(.40000006 0 0 .33333333 .7 1)" gradientUnits="userSpaceOnUse" x1="24" x2="24" xlink:href="#d" y1="44" y2="3.899002"/><linearGradient id="d"><stop offset="0" stop-color="#272727"/><stop offset="1" stop-color="#454545"/></linearGradient><radialGradient id="e" cx="24.501682" cy="6.647596" gradientTransform="matrix(0 .86935046 -.93513174 0 14.716379 -18.896953)" gradientUnits="userSpaceOnUse" r="17.49832"><stop offset="0" stop-color="#c4ea71"/><stop offset="1" stop-color="#7c9d35"/></radialGradient><linearGradient id="f" gradientTransform="matrix(.20583462 0 0 .23348985 1.913292 1.358445)" gradientUnits="userSpaceOnUse" x1="32.901409" x2="32.901409" xlink:href="#i" y1="4.648178" y2="61.481758"/><linearGradient id="g" gradientTransform="matrix(.40000003 0 0 .05128184 .7 .269239)" gradientUnits="userSpaceOnUse" x1="24" x2="24" xlink:href="#d" y1="44" y2="3.899002"/><linearGradient id="h" gradientTransform="matrix(.23432741 0 0 .49377342 .835715 .144129)" gradientUnits="userSpaceOnUse" x1="5.212257" x2="54.887218" xlink:href="#i" y1=".065302" y2=".065302"/><linearGradient id="i"><stop offset="0" stop-color="#96bf3e"/><stop offset="1" stop-color="#4d6b0d"/></linearGradient><g stroke-linejoin="round"><path d="m13.491301 2.3043766c-.096631-.6550622-.036411-1.1709278-.089789-1.79567784h-9.8928133l.058388 1.98260254" fill="#e9e9e9" stroke="url(#h)" stroke-miterlimit="0" stroke-width="1.017398"/><g stroke-linecap="round"><path d="m4.4999999 2.5h-1.6000002c-.2283392 0-.3999998-.021171-.3999998-.048786v-1.3982157c0-.4439613.2236128-.55299825.5163576-.55299825h1.4836424" fill="#e9e9e9" stroke="url(#g)"/><path d="m3.509521 2.509521h9.980959v12.980959h-9.980959z" fill="url(#e)" stroke="url(#f)" stroke-miterlimit="0" stroke-width="1.019041"/><path d="m4.4999999 2.5v13h-1.5999999c-.2283394 0-.4000001-.137593-.4000001-.317074v-12.682926z" fill="url(#b)" stroke="url(#c)"/><path d="m3.5 3.5h9v11h-9z" fill="none" opacity=".5" stroke="url(#a)"/></g></g><path d="m8.9999236 12.513908-2.513894-2.5141 2.513894-2.5137412.8380326.8378799-1.6760652 1.6758613.8379818.838033 2.5138932-2.5137415-2.189895-2.1898954c-.178821-.1789738-.4688698-.1789738-.647844 0l-3.5419113 3.5419113c-.1788209.1788209-.1788209.4688696 0 .6478436l3.5419625 3.541811c.1789738.178974.4690226.178974.647844 0l3.5419618-3.541811c.178821-.178974.178821-.4690227 0-.6478436l-.514187-.5140341z" opacity=".2"/><path d="m8.9999236 11.513908-2.513894-2.5140995 2.513894-2.5137412.8380326.8378799-1.6760652 1.6758613.8379818.8380327 2.5138932-2.5137412-2.189895-2.1898954c-.178821-.1789738-.4688698-.1789738-.647844 0l-3.5419113 3.5419113c-.1788209.1788209-.1788209.4688699 0 .647844l3.5419625 3.5418101c.1789738.178974.4690226.178974.647844 0l3.5419618-3.5418101c.178821-.1789741.178821-.4690231 0-.647844l-.514187-.5140341z" fill="#fff"/></svg>

<svg xmlns="http://www.w3.org/2000/svg" xmlns:xlink="http://www.w3.org/1999/xlink" height="16" width="16"><defs><linearGradient gradientTransform="matrix(.24324 0 0 .2973 2.162 1.865)" gradientUnits="userSpaceOnUse" xlink:href="#a" id="l" y2="40.818" x2="24" y1="7.182" x1="24"/><linearGradient id="a"><stop offset="0" stop-color="#fff"/><stop offset="0" stop-color="#fff" stop-opacity=".235"/><stop offset="1" stop-color="#fff" stop-opacity=".157"/><stop offset="1" stop-color="#fff" stop-opacity=".392"/></linearGradient><radialGradient gradientTransform="matrix(0 .779 -.9889 0 18.656 -3.145)" gradientUnits="userSpaceOnUse" xlink:href="#b" id="j" fy="8.45" fx="7.496" r="20" cy="8.45" cx="7.496"/><linearGradient id="b"><stop offset="0" stop-color="#5f5f5f"/><stop offset=".262" stop-color="#4f4f4f"/><stop offset=".705" stop-color="#3b3b3b"/><stop offset="1" stop-color="#2b2b2b"/></linearGradient><linearGradient gradientTransform="matrix(.4 0 0 .33333 .7 1)" gradientUnits="userSpaceOnUse" xlink:href="#c" id="k" y2="3.899" x2="24" y1="44" x1="24"/><linearGradient id="c"><stop offset="0" stop-color="#272727"/><stop offset="1" stop-color="#454545"/></linearGradient><linearGradient gradientTransform="matrix(.4 0 0 .05128 .7 .27)" gradientUnits="userSpaceOnUse" xlink:href="#d" id="h" y2="3.899" x2="24" y1="44" x1="24"/><linearGradient id="d"><stop offset="0" stop-color="#272727"/><stop offset="1" stop-color="#454545"/></linearGradient><linearGradient id="e"><stop offset="0" stop-color="#9bdb4d"/><stop offset="1" stop-color="#68b723"/></linearGradient><linearGradient id="f"><stop offset="0" stop-color="#fafafa"/><stop offset="1" stop-color="#d4d4d4"/></linearGradient><linearGradient y2="44.038" x2="70.766" y1="30.632" x1="70.766" gradientTransform="matrix(1.0019 0 0 1.00147 -62.74 -28.482)" gradientUnits="userSpaceOnUse" id="i" xlink:href="#e"/><linearGradient y2="17.605" x2="51.829" y1="17.115" x1="51.829" gradientTransform="matrix(1.3485 0 0 2.04184 -61.32 -33.946)" gradientUnits="userSpaceOnUse" id="g" xlink:href="#f"/></defs><path d="M13.49 2.304c-.095-.655-.035-1.17-.088-1.795H3.51l.057 1.98" style="isolation:auto;mix-blend-mode:normal;filter-blend-mode:normal;filter-gaussianBlur-deviation:0" fill="url(#g)" stroke="#206b00" stroke-width="1.017" stroke-linejoin="round" stroke-miterlimit="0" stroke-opacity=".498" color="#000" overflow="visible" solid-color="#000000"/><path d="M4.5 2.5H2.9c-.228 0-.4-.02-.4-.05V1.054C2.5.61 2.724.5 3.016.5H4.5" color="#000" overflow="visible" fill="#e9e9e9" stroke="url(#h)" stroke-linecap="round" stroke-linejoin="round"/><path style="isolation:auto;mix-blend-mode:normal" color="#000" overflow="visible" solid-color="#000000" fill="url(#i)" stroke="#206b00" stroke-linecap="round" stroke-linejoin="round" stroke-miterlimit="0" stroke-opacity=".498" d="M3.5 2.5h10v13h-10z"/><path d="M4.5 2.5v13H2.9c-.228 0-.4-.138-.4-.317V2.5z" color="#000" overflow="visible" fill="url(#j)" stroke="url(#k)" stroke-linecap="round" stroke-linejoin="round"/><path opacity=".3" fill="none" stroke="url(#l)" stroke-linecap="round" d="M3.5 3.5h9v11h-9z"/><path d="M9 5.025c-.37 0-.74.14-1.018.416l-3.54 3.542c-.555.555-.554 1.48 0 2.036l3.54 3.54c.555.555 1.48.555 2.036 0l3.54-3.54c.554-.555.555-1.48 0-2.036l-.513-.513a.98.98 0 0 0-.56-.277.98.98 0 0 0-.278-.562l-2.19-2.19C9.742 5.165 9.37 5.026 9 5.026z" style="isolation:auto;mix-blend-mode:normal" color="#000" overflow="visible" opacity=".15" solid-color="#000000" fill="#206b00"/><path d="M9 12.514L6.486 10 9 7.486l.838.838L8.162 10l.838.838 2.514-2.514-2.19-2.19c-.18-.18-.47-.18-.648 0L5.134 9.676c-.18.18-.18.47 0 .648l3.542 3.542c.18.18.47.18.648 0l3.542-3.542c.18-.18.18-.47 0-.648l-.514-.514L9 12.514z" style="isolation:auto;mix-blend-mode:normal;filter-blend-mode:normal;filter-gaussianBlur-deviation:0" opacity=".15" fill="#206b00" color="#000" overflow="visible" solid-color="#000000"/><path d="M9 11.514L6.486 9 9 6.486l.838.838L8.162 9 9 9.838l2.514-2.514-2.19-2.19c-.18-.18-.47-.18-.648 0L5.134 8.676c-.18.18-.18.47 0 .648l3.542 3.542c.18.18.47.18.648 0l3.542-3.542c.18-.18.18-.47 0-.648l-.514-.514L9 11.514z" fill="#fff"/></svg>
